assets/symbols/mulberry/freezer.svg

<svg height="850.394" viewBox="0 0 850.394 850.394" width="850.394" xmlns="http://www.w3.org/2000/svg"><g fill="#fff"><path d="m455.39 580.76v115.01h-3.42l-266.26 23.97-.53-121.59 2.78-.01 264.8-17.38z"/><path d="m455.39 461.15v119.61h-2.63l-264.8 17.38-2.78.01-.55-128.83h.26z"/><path d="m455.39 335.41v125.74l-270.5 8.17h-.26l-.57-130.85 2.88-.01z"/><path d="m455.39 226.97v108.44l-268.45 3.05-2.88.01-.48-111.28zm0 234.18v-248.18h4.77l164.85-17.14v577.43l-5.59 2.63-164.03-69.65v-125.48z"/></g><path d="m654.96 205.87.72 552.96-30.67 14.43v-577.43zm-501.95-19.19v581.01l-68.97-84.2v-462.7z" fill="#fff5b4"/><path d="m455.39 706.24v40.22l-297.41 27.3-4.97-6.07v-581.01l302.38 2.13v38.16l-271.81.22.48 111.28.57 130.85.55 128.83.53 121.59 266.26-23.97h3.42z" fill="#fff5b4"/><g fill="none" stroke="#231f20"><path d="m153.01 186.68-68.97 34.11v462.7l68.97 84.2 4.97 6.07 297.41-27.3v-557.65zm0 0v581.01" stroke-width="21"/><path d="m455.39 226.97-271.81.22.48 111.28.57 130.85.55 128.83.53 121.59 266.26-23.97" stroke-width="14"/><path d="m460.16 212.97 164.85-17.14 29.95 10.04.72 552.96-30.67 14.43-5.59 2.63-164.03-69.65m169.62-510.41v580.06" stroke-width="21"/><path d="m186.94 338.46 268.45-3.05 1.45-.02m-271.95 133.93 270.5-8.17.43-.01m-267.86 137 264.8-17.38" stroke-width="14"/><g stroke-width="7.411"><path d="m779.39 36.76-46.48 75.15-.17.27m65.16-54.16-35.67 7.58m-10.11-35.9 9.14 35.3m-75.08 122.46 46.46-75.11.09-.15.01-.02m-65.07 54.02 35.67-7.58m10.12 35.9-9.15-35.3m-18.28-123.11 46.65 75.42m-65.16-54.16 35.67 7.58m10.12-35.9-9.15 35.3"/><path d="m779.25 186.81-46.15-74.6-.19-.3-.13-.21-.1-.17m65.07 54.02-35.67-7.58m-10.12 35.9 9.15-35.3m60.55-46.36h-88.87m80.54 26.92-25.21-26.35m25.21-27.49-25.21 26.35m-143.65.56h88.52m-80.17-26.92 25.2 26.35m-25.2 27.48 25.2-26.34"/></g></g><path d="m0 0h850.394v850.394h-850.394z" fill="none"/></svg>

<svg xmlns="http://www.w3.org/2000/svg" width="850.394" height="850.394" viewBox="0 0 850.394 850.394" overflow="visible"><path fill="#fff" d="M455.39 580.76v115.01h-3.42l-266.26 23.97-.53-121.59 2.78-.01 264.8-17.38z"/><path fill="#fff" d="M455.39 461.15v119.61h-2.63l-264.8 17.38-2.78.01-.55-128.83h.26z"/><path fill="#fff" d="M455.39 335.41v125.74l-270.5 8.17h-.26l-.57-130.85 2.88-.01z"/><path fill="#fff" d="M455.39 226.97v108.44l-268.45 3.05-2.88.01-.48-111.28zM455.39 461.15V212.97h4.77l164.85-17.14v577.43l-5.59 2.63-164.03-69.65V580.76z"/><path fill="#fff5b4" d="M654.96 205.87l.72 552.96-30.67 14.43V195.83zM153.01 186.68v581.01l-68.97-84.2v-462.7z"/><path fill="#fff5b4" d="M455.39 706.24v40.22l-297.41 27.3-4.97-6.07V186.68l302.38 2.13v38.16l-271.81.22.48 111.28.57 130.85.55 128.83.53 121.59 266.26-23.97h3.42z"/><g fill="none" stroke="#231f20"><path stroke-width="21" d="M153.01 186.68l-68.97 34.11v462.7l68.97 84.2 4.97 6.07 297.41-27.3V188.81zM153.01 186.68v581.01"/><path stroke-width="14" d="M455.39 226.97l-271.81.22.48 111.28.57 130.85.55 128.83.53 121.59 266.26-23.97"/><path stroke-width="21" d="M460.16 212.97l164.85-17.14 29.95 10.04.72 552.96-30.67 14.43-5.59 2.63-164.03-69.65M625.01 195.83v580.06"/><path stroke-width="14" d="M186.94 338.46l268.45-3.05 1.45-.02M184.89 469.32l270.5-8.17.43-.01M187.96 598.14l264.8-17.38"/><path stroke-width="7.411" d="M779.39 36.76l-46.48 75.15-.17.27M797.9 58.02l-35.67 7.58M752.12 29.7l9.14 35.3M686.18 187.46l46.46-75.11.09-.15.01-.02M667.67 166.2l35.67-7.58M713.46 194.52l-9.15-35.3M686.03 36.11l46.65 75.42M667.52 57.37l35.67 7.58M713.31 29.05l-9.15 35.3"/><path stroke-width="7.411" d="M779.25 186.81l-46.15-74.6-.19-.3-.13-.21-.1-.17M797.75 165.55l-35.67-7.58M751.96 193.87l9.15-35.3M821.66 112.21h-88.87M813.33 139.13l-25.21-26.35M813.33 85.29l-25.21 26.35M644.47 112.2H732.99M652.82 85.28l25.2 26.35M652.82 139.11l25.2-26.34"/></g><path fill="none" d="M0 0h850.394v850.394H0z"/></svg>
